!!!OTL: Conscritlied (2-55) S. 175
!!!id: P0928
**kern
*clefG2
*k[f#]
*G:
{4d
=1
4g
4b
8a
8a
=2
4g}
4r
=3
{8g
8a
=4
4b
4dd
8cc
8a
=5
4b}
4r
=6
{4g
=7
8f#
8a
4a
8f#
8d
=8
8g
8b
4b}
=9
{4g
=10
8f#
8a
4cc
8a
8f#
=11
8g
8b
4b}
=12
{8g
8f#
=13
4.e
8f#
8g
8e
=14
4d}
4r
=15
{8g
8b
=16
4dd
4dd
8cc
8a
=17
4g}
4r
==
*-
!!!minrhy: 8
!!!meters: 3/4 ]  ZZ[6
!!!cut: Conscritlied (2-55) S. 175
!!!reg: Lothringen
!!!trd: PINCK, Louis: Verklingende Weisen, Bd 2, Metz 1928
!!!rhy1: X_  X_X_XX  X_0_
!!!rhy2: XX  X_X_XX  X_0_
!!!key: P0928  08  G 3/4 ]  ZZ[6
!!!mod: HEPTATONIK IONISCH]  AMBITUS[8
!!!kad: 1333-51
!!!akz: 11_33_-71_-71_-6-5_51_
!!!fot: 'a__as"b__bw_c__d__
!!!for: 'a__av_b__b__c__av_
!!!fok: '^a_^a_Va_~a_Sd_^__
!! PHRAS[AUFTAKTIG]
!!!fkt: Soldatenlied, Abschied, Liebe
!! LOTH VKL
!! PR[28] 2K[5] 2G[8] 3K[3] 3G[3] 4A[5] 4Ü[0] 5A[0] 6K[0] 6G[0]
!! 7K[2] 7G[0] 8A[0] MEHR[0] SI[26] ABS[61] SR[13] SP[13]
!! ST[13] 2k[11] 2g[28] 3k[2] 3g[0] 4d[5] 4ü[0] 5d[0] 6k[0] 6g[0]
!! 7k[0] 7g[0] 8d[0] mehr[0] si[46] dm[-20] sr[39] sp[7]
!! 1F[54] 2F[32] 3F[5] 4F[0] LF[0] 2P[10] 3P[0] 4P[0] TRI[0] DF[4] AB[63]
!! TF[0] U3K[0] U3[0] U4[0] U4Ü[0] U5[0] U6K[0] U6[0] U7K[0] U7[0]
!! N1[5] N2K[0] N2[10] N3K[0] N3[19] N4[11] N4Ü[3] N5[29] N6K[0] N6[8]
!!!n7k: 0] N7[2] O1[11] O2K[0] O2[2] O3K[0] O3[0] HÖ[0
